X:366
T:Reel 366
M:4/4
K:Dmaj
L:1/8
AG|FD (3DCD A,D (3DCD |FDDF GBAG|FD (3DCD A,D (3DDD |EDCD ECA,ECE|FD (3DDD A,D (3DCD |FDAF GBAG|FEFG AB=cA|GECE =cAG2|A|fded fdadfd| (3ded af gece| (3ddd fd adfd|cdeg fddg| (3fed  (3dfd ed (3dcd |A=cBc Gcec|d|fdec dcAG|FDEC A,DD2|
